X:1
T:Henry Joy
M:4/4
L:1/8
K:F
F-D| C2C-D F2 GA| c3 B A2 FG| A2 F2 D3 D| D6F-D| C3 D F2G-A| c3 B A2 FG|\
 A F3 D3 D| D6 AB| c3 c d2c-A| c2c-B A2 C2| D2 F2 B2 A2| G6F-D| C3 D F2G-A|\
 c2c-B A2F-G| A F- F2 D3 D| D4 z2||
